X:227
T:Hey Boys,Up We Go. (p)1679.PLFD.227
T:King's Jig,The. (p)1679.PLFD.227
M:4/4
L:1/4
Q:1/2=100
S:Playford, Dancing Master,6th Ed.,1679
O:England
N:From Ed.9 onwards this has a 6/4 time signature.
H:1679.
Z:Chris Partington.
K:G
D|D>dc>B|AGF/G/A|G>FED|d3:|
|:A|defe|d/e/cBA|cdc<B|A3d|
agf/e/d|gfe/d/c|d>FE>D|d3:|
